X:35
T:Bransle Simple 1
C:Claude Gervaise
L:1/8
M:2/2
O:France
Z:Andy Hornby
%%TUNEURL: http://www.leeds.ac.uk/music/Info/RRTuneBk/gettune/00000d8a.html
%%ID:00000d8a
K:F
B3A GF B2|A3G ^FGAB|AG^FE G2D2|
G3F ED B2|A3G ^FGAG|GEG^F G4:|
|:B2GB A2FA|G2GG ^FGAB|AG^FE G2D2|
B2GB A2FA|G2EG ^FGAG|GEG^F G4:|
